X: 33548
T: Rake, The
R: hornpipe
M: 4/4
K: Gmajor
|:(3d^c=c|BG DGBGdB|(3gfg (3agf gdBG|FE FGAB(3cBA|d^c defdcA|
BG DGBGdB|(3gfg (3agf gdBG|(3Bcd gdcA|FGAG|GF G2:|
(3d^c=c F2D2 D2|dc B2G2G2|(3d^c=c F2D2 d^c|edfe d^cd2|
(3d^c=c F2D2 D2|dc B2G2G2|(3d^c=c FA dfed|^ce (3ded (3=cdc (3BcA|
BG DGBGdB|(3gfg (3agf gdBG|FE FGAB(3cBA|d^c defdcA|
BG DGBGdB|(3gfg (3agf gdBG|(3Bcd gdcAFG|AG GF G2|

